images/facebook.svg

<svg width="40" height="40" viewBox="0 0 40 40" fill="none" xmlns="http://www.w3.org/2000/svg">
<path d="M40 20C40 8.95599 31.044 0 20 0C8.95599 0 0 8.95599 0 20C0 31.044 8.95599 40 20 40C20.1175 40 20.2344 39.9976 20.3516 39.9954V24.4263H16.0547V19.4186H20.3516V15.7336C20.3516 11.46 22.9605 9.13391 26.7728 9.13391C28.5983 9.13391 30.1675 9.27002 30.625 9.33075V13.7973H27.9962C25.9222 13.7973 25.5206 14.783 25.5206 16.2292V19.4186H30.4797L29.8334 24.4263H25.5206V39.2273C33.8803 36.8307 40 29.129 40 20Z" fill="white"/>
</svg>

<svg width="40" height="40" fill="none" xmlns="http://www.w3.org/2000/svg"><path d="M40 20C40 8.956 31.044 0 20 0S0 8.956 0 20s8.956 20 20 20c.117 0 .234-.002.352-.005V24.426h-4.297V19.42h4.297v-3.685c0-4.274 2.608-6.6 6.42-6.6 1.826 0 3.396.136 3.853.197v4.466h-2.629c-2.074 0-2.475.986-2.475 2.432v3.19h4.959l-.647 5.007h-4.312v14.801C33.88 36.831 40 29.13 40 20z" fill="#fff"/></svg>
